X:66
M:C|
L:1/8
K:ADor
E2|ABc2 Bcd2|c4 c2d2|efg2 f3e|e6 ef
|g2fe d2de|=f2ed c2cd|e2dc B3A|1 A6 E2 :|2 A8||
|g2de =f2cd|e2Bc d2cd|e2dc B3A|A8||

